X: 84
T: POLKA: Green Cottage No. 2
T: Glen Cottage No. 2
C: C: Trad.; S: Polca an Rí
C: Set Leaders: Oleg, Anton, Oliushka, Sophie
Z: Anton Zille ed.; ceili at The Session
N: https://thesession.org/members/26966/sets/99681
R: Polka
M: 2/4
L: 1/8
Q: 1/4=140
K: Gmaj
Bd|:eA Bd|e/f/e/d/ Bd|eA BA|G>A Bd|
eA Bd|e/f/e/d/ Bd|ea e/f/e/d/|1 BA AB/d/:|2 BA A2||
|:e2 ef/g/|ae fe|d2 de/f/|ge f/e/d|
e2 ef/g/|ae fd|ea e/f/e/d/|1 BA AB/d/:|2 BA A2||

